X:13632
T:Princess Beatrice
R:Hornpipe
O:Scotland
M:4/4
C:W. B. Laybourn
K:Gm
dc| \
BDGB AD^FA| GDGB dcBA| Bdgf edcB| AGFE DcBA| \
BDGB AD^FA|
GDGB dcBA| \
f=e_ec AD^FA| GBdg G2 ::\
FE |\
DBEB FBEB| DFBd fbfd|
Ec=Ec FcGc| Acec AFEC|\
DBEB FBEB| DFBd fbfd| f=e_ed cBAG| FEDC[B,2D2]\
:|**
